lib/svgs/home.svg

<svg xmlns="http://www.w3.org/2000/svg" viewBox="0 0 20 20">
    <path fill="#000" fill-rule="evenodd" d="M17.8297877,9.778 L10.4297877,2.174 C10.2037877,1.942 9.79578773,1.942 9.56978773,2.174 L2.16978773,9.778 C2.00178773,9.95 1.95378773,10.207 2.04678773,10.429 C2.14078773,10.652 2.35878773,10.796 2.59978773,10.796 L4.46578773,10.796 L4.46578773,16.748 C4.46578773,17.079 4.73478773,17.348 5.06578773,17.348 L8.42478773,17.348 L11.5737877,17.348 L14.9327877,17.348 C15.2647877,17.348 15.5327877,17.079 15.5327877,16.748 L15.5327877,10.796 L17.3997877,10.796 C17.6407877,10.796 17.8587877,10.652 17.9527877,10.429 C18.0457877,10.207 17.9977877,9.95 17.8297877,9.778 L17.8297877,9.778 Z M9.02478773,16.149 L9.02478773,12.548 L10.9737877,12.548 L10.9737877,16.149 M14.9327877,9.596 C14.6007877,9.596 14.3327877,9.865 14.3327877,10.196 L14.3327877,16.149 L12.1737877,16.149 L12.1737877,11.948 C12.1737877,11.617 11.9057877,11.348 11.5737877,11.348 L8.42478773,11.348 C8.09378773,11.348 7.82478773,11.617 7.82478773,11.948 L7.82478773,16.149 L5.66578773,16.149 L5.66578773,10.196 C5.66578773,9.865 5.39778773,9.596 5.06578773,9.596 L4.02078773,9.596 L9.99978773,3.453 L15.9777877,9.596 L14.9327877,9.596 L14.9327877,9.596 Z"/>
</svg>

<svg xmlns="http://www.w3.org/2000/svg" viewBox="0 0 20 20">
    <path fill="#000" fill-rule="evenodd" d="M17.83 9.778l-7.4-7.604a.618.618 0 0 0-.86 0l-7.4 7.604a.6.6 0 0 0 .43 1.018h1.866v5.952a.6.6 0 0 0 .6.6h9.867a.6.6 0 0 0 .6-.6v-5.952H17.4a.6.6 0 0 0 .43-1.018m-8.805 6.371v-3.601h1.949v3.601m3.959-6.553a.6.6 0 0 0-.6.6v5.953h-2.16v-4.201a.6.6 0 0 0-.6-.6H8.426a.6.6 0 0 0-.6.6v4.201h-2.16v-5.953a.6.6 0 0 0-.6-.6H4.022L10 3.453l5.978 6.143h-1.045"/>
</svg>
